X: 116
T: The Hermit of Killarney
N:"Moderate"
B:O'Neill's 116
Z:Transcribed by henrik.norbeck@mailbox.swipnet.se
M:C
L:1/8
K:G
B/A/|G>AGE D>EGA|BdBG A2 (d/c/)(B/A/)|G>AGE D>EGA|(B<d)A>B G2 z:|
|:D|G>Bdd e>dBd|e>d (c/B/)(A/G/) A2 (d/c/B/A/)|G>AGE D>EGz/A/|Bd "~"(A/G/)(A/B/) G3:|


